X: 17
M:2/4
L:1/16
K:A
u((3EFG)|\
"1"A2(cB) Ac"4"ec | defg ((3aga)(ec) | fedf ecAc | BAGB A2 H:|
K:E
|:vGA|\
(cB).B.B .B2vcd | edef .g2(fg) | agfa gfeg | fedc BAGA |
(cB).B.B .B2vcd | edef .g2(fg) | agfa gfeg | fedf e2 :|


